!!!CDT:
!!!PTL: Il secondo libro de madrigali a sei voci
!!!PPP: Venice
!!!PPR: Amadino
!!!PDT: 1599
!!!PUB-format:
!!!RISM: B 4204
!!!rime: 1049
!!!AGN: Madrigal
!!!SCT: Trm1049b
!!!SCA: Trm1049b
!!!original-voices: 6
!!!extant-voices: 2
!!!complete: N
!!!final: D
!!!COM: Bozi, Paolo
!!!OTL: Queste note son nove, e queste Amore
**kern	**text	**kern	**text
*part2	*part2	*part1	*part1
*staff2	*staff2	*staff1	*staff1
*I"Basso	*	*I"Canto	*
*I'B	*	*I'C	*
*oclefF4	*	*oclefC1	*
*clefF4	*	*clefG2	*
*k[]	*	*k[]	*
*omet(C)	*	*omet(C)	*
*M4/2	*	*M4/2	*
=1	=1	=1	=1
0r	.	2.a	Que-
.	.	4f#X	-ste
.	.	2g	no-
.	.	[2a	-te
=2	=2	=2	=2
1r	.	4a]	.
.	.	4a	son
.	.	4g	no-
.	.	4fnXi	.
2r	.	2e	.
2D	e	2d	-ve,
=3	=3	=3	=3
2.GG	que-	2r	.
.	.	2g	e
4GG	-sto a-	.	.
1D	-mo-	2.f	que-
.	.	4f	-sto a-
=4	=4	=4	=4
2AA	-re	2e	-mo-
2A	Co-	4e	-re
.	.	4e	Co-
2.E	-min-	2.g	-min-
4E	-cia in	[4e	-cia in
=5	=5	=5	=5
2C	no-	4e]	.
.	.	2g	no-
2GG	-vi	.	.
.	.	4g	-vi
1AA	mo-	2c	mo-
.	.	2cc	.
=6	=6	=6	=6
1EE	-di:	1b	-di:
1r	.	1r	.
=7	=7	=7	=7
0r	.	2r	.
.	.	4r	.
.	.	2a	Que-
.	.	4f#X	-ste
.	.	2g	no-
=8	=8	=8	=8
1r	.	2a	-te
.	.	2fnXi	son
2E	Que-	2.e	no-
4BB	-ste	.	.
[4D	no-	4d	-di
=9	=9	=9	=9
4D]	.	0r	.
2E	-te	.	.
4D	son	.	.
2BB	no-	.	.
[2AA	-di,	.	.
=10	=10	=10	=10
4AA]	.	1r	.
2A	Que-	.	.
4F	-ste	.	.
2G	no-	2r	.
4A	-te	4r	.
4D	son	4d	Che
=11	=11	=11	=11
2A	no-	2e	mi
2D	-di	4f	fa
.	.	2a	la
1r	.	.	.
.	.	4g	mia
.	.	4f	Don-
.	.	[4e	-na in-
=12	=12	=12	=12
2.AA	Che	4e]	.
.	.	2a	-tor-
4BB	mi	4d	-n'al
4C	fa	1g	co-
2E	la	.	.
4BB	mia	.	.
=13	=13	=13	=13
4C	Don-	2e	-re,
4AA	-na in-	.	.
4E	-tor-	4r	.
4F	-n'al	4cc	in-
1E	co-	4g	-tor-
.	.	4a	-n'al
.	.	2b	co-
=14	=14	=14	=14
1AA	-re,	2cc	-re,
.	.	2.a	E
1r	.	.	.
.	.	4g	li
.	.	[2f	strin-
=15	=15	=15	=15
0r	.	4f]	.
.	.	8e	-ge il
.	.	8d	pia-
.	.	4c	-cer
.	.	4f	e
.	.	4e	la
.	.	4d	spe-
.	.	2c#X	-ran-
=16	=16	=16	=16
2r	.	1d	-za,
2.F	E	.	.
.	.	2r	.
4E	li	.	.
[2D	strin-	4r	.
.	.	[4f	E
=17	=17	=17	=17
4D]	.	4f]	.
8C	-ge il	4g	li
8BB	pia-	.	.
2.AA	-cer	2.a	strin-
4AA	e	8g	-ge il
.	.	8f	pia-
4E	la	4e	-cer
4F	spe-	4cc	e
=18	=18	=18	=18
1E	-ran-	4g	la
.	.	4a	spe-
.	.	2b	-ran-
2AA	-za,	2cc	-za,
2r	.	2a	Tal
=19	=19	=19	=19
0r	.	4g	che
.	.	4f	di
.	.	4e	li-
.	.	4d	-ber-
.	.	2c	-tà,
.	.	2cc	Tal
=20	=20	=20	=20
1r	.	4b	che
.	.	4a	di
.	.	4g	li-
.	.	4f	-ber-
1AA	Tal	2.e	-tà
.	.	4e	nul-
=21	=21	=21	=21
2BB	che	2g	-la
2BB	di	2d	m'a-
2C	li-	2g	-van-
2C	-ber-	2e	-za,
=22	=22	=22	=22
1D	-tà	2r	.
.	.	2f	Tal
1C	nul-	4g	che
.	.	4e	di
.	.	4g	li-
.	.	4g	-ber-
=23	=23	=23	=23
4.AA	-la	8aL	-tà
.	.	8b	.
.	.	8cc	.
8BB	.	8ddJ	.
4C	.	4ee	.
4D	m'a-	4dd	nul-
1AA	-van-	4cc	-la
.	.	4a	m'a-
.	.	2a	-van-
=24	=24	=24	=24
0Dl	-za.	0al	-za.
==	==	==	==
*-	*-	*-	*-
!!!system-decoration: [*]
!!!RDF**kern: i = editorial accidental
!!!RDF**kern: l = terminal long
!!!ENC: Emiliano Ricciardi
!!!END: 2018
!!!EED: Ricciardi, Emiliano
!!!EEV: 2018/09/18
!!!YEC: Copyright 2018 Emiliano Ricciardi, All Rights Reserved
!!!ONB: Translated from MusicXML on 2018/09/18 and edited by Craig Stuart Sapp
!!@@BEGIN:	VERSEDATA
!!@SOLERTI:	1049
!!@CATALOGNUM:	Trm1049
!!@LAST_MODIFIED: 2020/07/12
!!@TITLE:		Queste note son nove, e queste Amore
!!@GENRE:		madrigale
!!@MANUSRC:	E<sub>2</sub>
!!@PRINTSRC:	28, 141, 166, 169
!!@@BEGIN:	VERSES
!!@ABOUTIT:	Ne la dedicazione d'una scelta di madrigali in musica a la signora donna Marfisa d'Este, a istanza d'un gentiluomo suo amico.
!!@ABOUTEN:	On the dedication of a selection of madrigali set to music to lady Marfisa d'Este, on behalf of a gentleman friend of hers.
!!@EDITOR:	Solerti, Angelo
!!@EDITION_TITLE: Le Rime di Torquato Tasso
!!@EDITION_LOC:	Bologna
!!@EDITION_PUB:	Romagnoli-Dall’Acqua
!!@EDITION_DATE:  1898-1902
!!@EDITION_VOL:	4
!!@EDITION_PAGE:  89
!!@TRANSLATOR:	Emiliano Ricciardi and Amyrose McCue Gill
!!@VERSE:
!!	Queste note son nove, e queste Amore
!!	Comincia in novi modi:
!!	Queste note son nodi
!!	Che mi fa la mia donna intorno al core,
!!	Anzi ella insieme ed io
!!	Facciam soavi lacci a 'l desir mio;
!!	E li stringe il piacere e la speranza,
!!	Tal che di libertà nulla m'avanza.
!!@TVERSE:
!!	These notes are new, and these Love
!!	Begins in new modes:
!!	These notes are knots
!!	That my lady ties around my heart,
!!	Or rather she together with me
!!	We make snares pleasing to my desire;
!!	And pleasure and hope binds them
!!	Such that no freedom is left me.
!!@@END:		VERSES
!!@OTHER_CRIT_ED:   None
!!@ATTRIBUTION_ABOUT:	Secure
!!	<br>
!!	Among other sources, this sonnet appears in the authoritative manuscript It. 379a, Biblioteca Estense Universitaria, Modena, Italy (see Literary Sources).
!!@DATING:	Mid-1580s?
!!@DEDICATEE:	d'Este, Marfisa
!!@COMMENTARY:
!!@@END:		VERSEDATA
!!@@BEGIN:	SETTING
!!@CATALOGNUM:	Trm1049b
!!@RIMETITLE:	Queste note son nove, e queste Amore
!!@SOLERTI:	1049
!!@COMPOSER:	Bozi, Paolo
!!@PRINCEPSTITLE:	Il secondo libro de madrigali a sei voci
!!@PRINCEPSLOC:	Venetia
!!@NORMLOC:	Venice
!!@NORMPUB:	Amadino
!!@NORMPUBSHORT:	Amadino
!!@PRINCEPSPUB:	Amadino
!!@PRINCEPSYEAR:	1599
!!@PRINCEPSRISM:	B 4204
!!@REPRINTS:	
!!@OVOICES:	6
!!@EXTANTVOICES:	2
!!@PARTBOOKS:	
!!@EXTPARTBOOKS:	
!!@OCLEFS:	C1,F4
!!@OMENSURATION:	C
!!@OKEYSIG:	-
!!@FINAL:	D
!!@TIMPEDITOR:	Ricciardi, Emiliano
!!@NOTE:		
!!@@END:		SETTING
